X:1
T:Title
%%score [ ( 1 2 ) ( 3 4 ) ]
L:1/8
Q:1/4=113
M:4/4
K:Eb
V:1 treble nm="S A"
V:2 treble 
V:3 bass nm="T B"
V:4 bass 
V:1
"^S. S. Wesley\n(1810-1876)""^Who are these arrayed in white?""^Leyden (77. 77. D)""^Charles Wesley\n(1707-88)" G3 G F2 G2 | %1
 A2 F2 B4 | e3 d c2 B2 | B2 A2 G4 || G3 G F2 G2 | A2 F2 B4 | G2 e2 d2 dc | B2 =A2 B4 || %8
 F3 F B2 B2 | B2 c2 (A2 B2) | G2 G2 G2 G2 | G2 ^F2 G4 || G3 G F2 G2 | A2 F2 B4 | B2 A2 A2 G2 | %15
 F2 F2 E4 |] %16
V:2
 E3 E D2 E2 | D2 D2 E4 | E3 E E2 E2 | E2 F2 E4 || E3 E D2 =E2 | F2 F2 F4 | E2 _G2 F2 =Gc | %7
 F2 E2 D4 || D3 D =E2 F2 | G2 G2 (F2 B2) | E2 F2 E2 D2 | C2 C2 D4 || E3 E D2 E2 | D2 D2 ^C4 | %14
 C2 D>E F2 E2 | E2 D2 B,4 |] %16
V:3
 B,3 B, A,2 G,2 | F,2 A,2 G,4 | B,3 B, A,2 B,2 | C2 D2 B,4 || B,3 B, =B,2 _B,2 | C2 =B,2 _B,4 | %6
 B,2 =A,2 B,2 =B,C | D2 C2 B,4 || %8
"^1. Who are these arrayed in white,\nBrighter than the noon-day sun?\nForemost of the sons of light;\nNearest the eternal throne?\nThese are they that bore the cross,\nNobly for their Master stood;\nSufferers in His righteous cause,\nFollowers of the dying God.\n\n2. Out of great distress they came,\nWashed their robes by faith below,\nIn the blood of yonder Lamb,\nBlood that washes white as snow:\nTherefore are they next the throne,\nServe their Maker day and night:\nGod resides among His own,\nGod doth in His saints delight." B,3 B, _D2 D2 | %9
 _D2 C2 (C2 B,2) | B,2 =B,2 C2 G,2 | C2 C2 =B,4 || %12
"^3. More than conquerors at last,\nHere they find their trials o’er;\nThey have all their sufferings past,\nHunger now and thirst no more:\nNo excessive heat they feel\nFrom the sun’s directed ray;\nIn a milder clime they dwell,\nRegion of eternal day.\n\n4. He that on the throne doth reign,\nThem the Lamb shall always feed,\nWith the tree of life sustain,\nTo the living fountains lead;\nHe shall all their sorrows chase,\nAll their wants at once remove,\nWipe the tears from every face,\nFill up every soul with love." _B,3 B, A,2 G,2 | %13
 F,2 A,2 G,4 | C2 =B,2 B,2 _B,2 | C2 B,A, G,4 |] %16
V:4
 E,3 E, E,2 E,2 | E,2 E,2 E,4 | G,3 G, A,2 G,2 | F,2 B,2 E,4 || E,3 E, A,2 G,2 | F,2 E,2 D,4 | %6
 E,2 C,2 D,2 E,2 | F,2 F,2 B,,4 || B,3 A, G,2 F,2 | =E,2 E,2 (F,2 D,2) | E,2 D,2 C,2 B,,2 | %11
 A,,2 A,,2 G,,4 || E,3 E, E,2 E,2 | E,2 E,2 E,4 | A,2 F,2 D,2 E,2 | A,,2 B,,2 E,4 |] %16

